icons/desktop/12/svg/external-link-12.svg

<svg width="12" height="12" viewBox="0 0 12 12" fill="none" xmlns="http://www.w3.org/2000/svg">
<path d="M5.5 2.25977C4.75507 2.26976 4.02211 2.29567 3.28418 2.34766C2.7043 2.38965 2.25018 2.88381 2.25 3.47266V8.52734C2.25017 9.11709 2.71393 9.61115 3.30566 9.6543C5.1006 9.78129 6.92089 9.78133 8.71582 9.65234C9.29571 9.61035 9.74983 9.1162 9.75 8.52734V6.5H11V8.52734C10.9998 9.7682 10.0356 10.8104 8.80566 10.8984C7.87478 10.9664 6.93088 11 6 11C5.076 11 4.13982 10.9664 3.21582 10.9004C1.974 10.8123 1.00017 9.76915 1 8.52734V3.47168C1.00017 2.23082 1.96444 1.18858 3.19434 1.10059C3.96221 1.0456 4.72512 1.01976 5.5 1.00977V2.25977Z" fill="black"/>
<path d="M10.5342 1C10.791 1.00009 10.9999 1.20896 11 1.46582V4.53418C10.9999 4.94898 10.4981 5.15699 10.2051 4.86328L9.11328 3.77148L6.06738 6.81836C5.94539 6.94035 5.78499 7 5.625 7C5.46501 7 5.30461 6.93937 5.18262 6.81738C4.93962 6.57339 4.93963 6.17564 5.18262 5.93164L8.22754 2.88574L7.13672 1.79492C6.84404 1.50194 7.05104 1.00016 7.46582 1H10.5342Z" fill="black"/>
</svg>

<!-- This Source Code Form is subject to the terms of the Mozilla Public
   - License, v. 2.0. If a copy of the MPL was not distributed with this
   - file, You can obtain one at http://mozilla.org/MPL/2.0/. -->
<svg xmlns="http://www.w3.org/2000/svg" width="12" height="12" fill="context-fill" fill-opacity="context-fill-opacity" viewBox="0 0 12 12">
    <path d="M5.5 2.26a39 39 0 0 0-2.216.088A1.126 1.126 0 0 0 2.25 3.473v5.054c0 .59.464 1.084 1.056 1.127 1.795.127 3.615.127 5.41-.002A1.126 1.126 0 0 0 9.75 8.527V6.5H11v2.027a2.38 2.38 0 0 1-2.194 2.371 39 39 0 0 1-5.59.002A2.39 2.39 0 0 1 1 8.527V3.472A2.38 2.38 0 0 1 3.194 1.1c.768-.055 1.531-.081 2.306-.091z" />
    <path d="M10.534 1c.257 0 .466.209.466.466v3.068a.466.466 0 0 1-.795.33L9.113 3.77 6.067 6.818A.62.62 0 0 1 5.625 7c-.16 0-.32-.06-.442-.183a.63.63 0 0 1 0-.885l3.045-3.046-1.091-1.091A.466.466 0 0 1 7.466 1z" />
</svg>
